X: 35192
T: Rooney's Favourite
R: jig
M: 6/8
K: Emixolydian
B|:edB AFB|EFE EDB,|D2 A, DFE|DEF AB/c/d|
edB AFB|EFE EDB,|DEF A2 B|AFE E2 B:|
|:EGB e2 B|ege BGE|DFA d2 e|fed BAF|
EGB e2 B|ege Bcd|edB AFB|EFE E2 B:|

